static/img/kroki/1f71563ad1b185c7aa22a200d6239d94.svg

<?xml version="1.0" encoding="us-ascii" standalone="no"?><svg xmlns="http://www.w3.org/2000/svg" xmlns:xlink="http://www.w3.org/1999/xlink" contentStyleType="text/css" height="352px" preserveAspectRatio="none" style="width:805px;height:352px;" version="1.1" viewBox="0 0 805 352" width="805px" zoomAndPan="magnify"><defs/><g><!--class aws_cognito_group--><g id="elem_aws_cognito_group"><rect codeLine="22" fill="#3D176E" height="39.7891" id="aws_cognito_group" rx="2.5" ry="2.5" style="stroke:#000D19;stroke-width:0.5;" width="202" x="41.5" y="206.58"/><ellipse cx="56.5" cy="226.4745" fill="#ADD1B2" rx="11" ry="11" style="stroke:#181818;stroke-width:1.0;"/><path d="M59.4688,232.1152 Q58.8906,232.412 58.25,232.5527 Q57.6094,232.7089 56.9063,232.7089 Q54.4063,232.7089 53.0781,231.0683 Q51.7656,229.412 51.7656,226.287 Q51.7656,223.162 53.0781,221.5058 Q54.4063,219.8495 56.9063,219.8495 Q57.6094,219.8495 58.25,220.0058 Q58.9063,220.162 59.4688,220.4589 L59.4688,223.1777 Q58.8438,222.5995 58.25,222.3339 Q57.6563,222.0527 57.0313,222.0527 Q55.6875,222.0527 55,223.1308 Q54.3125,224.1933 54.3125,226.287 Q54.3125,228.3808 55,229.4589 Q55.6875,230.5214 57.0313,230.5214 Q57.6563,230.5214 58.25,230.2558 Q58.8438,229.9745 59.4688,229.3964 L59.4688,232.1152 Z " fill="#000000"/><text fill="#D9B8FF" font-family="Helvetica" font-size="17" lengthAdjust="spacing" textLength="160" x="75.5" y="232.3598">aws_cognito_group</text></g><!--class aws_cognito_user--><g id="elem_aws_cognito_user"><rect codeLine="24" fill="#3D176E" height="39.7891" id="aws_cognito_user" rx="2.5" ry="2.5" style="stroke:#000D19;stroke-width:0.5;" width="190" x="278.5" y="206.58"/><ellipse cx="293.5" cy="226.4745" fill="#ADD1B2" rx="11" ry="11" style="stroke:#181818;stroke-width:1.0;"/><path d="M296.4688,232.1152 Q295.8906,232.412 295.25,232.5527 Q294.6094,232.7089 293.9063,232.7089 Q291.4063,232.7089 290.0781,231.0683 Q288.7656,229.412 288.7656,226.287 Q288.7656,223.162 290.0781,221.5058 Q291.4063,219.8495 293.9063,219.8495 Q294.6094,219.8495 295.25,220.0058 Q295.9063,220.162 296.4688,220.4589 L296.4688,223.1777 Q295.8438,222.5995 295.25,222.3339 Q294.6563,222.0527 294.0313,222.0527 Q292.6875,222.0527 292,223.1308 Q291.3125,224.1933 291.3125,226.287 Q291.3125,228.3808 292,229.4589 Q292.6875,230.5214 294.0313,230.5214 Q294.6563,230.5214 295.25,230.2558 Q295.8438,229.9745 296.4688,229.3964 L296.4688,232.1152 Z " fill="#000000"/><text fill="#D9B8FF" font-family="Helvetica" font-size="17" lengthAdjust="spacing" textLength="148" x="312.5" y="232.3598">aws_cognito_user</text></g><!--class aws_cognito_user_pool--><g id="elem_aws_cognito_user_pool"><rect codeLine="26" fill="#3D176E" height="39.7891" id="aws_cognito_user_pool" rx="2.5" ry="2.5" style="stroke:#000D19;stroke-width:0.5;" width="234" x="273.5" y="106.79"/><ellipse cx="288.5" cy="126.6845" fill="#ADD1B2" rx="11" ry="11" style="stroke:#181818;stroke-width:1.0;"/><path d="M291.4688,132.3252 Q290.8906,132.622 290.25,132.7627 Q289.6094,132.9189 288.9063,132.9189 Q286.4063,132.9189 285.0781,131.2783 Q283.7656,129.622 283.7656,126.497 Q283.7656,123.372 285.0781,121.7158 Q286.4063,120.0595 288.9063,120.0595 Q289.6094,120.0595 290.25,120.2158 Q290.9063,120.372 291.4688,120.6689 L291.4688,123.3877 Q290.8438,122.8095 290.25,122.5439 Q289.6563,122.2627 289.0313,122.2627 Q287.6875,122.2627 287,123.3408 Q286.3125,124.4033 286.3125,126.497 Q286.3125,128.5908 287,129.6689 Q287.6875,130.7314 289.0313,130.7314 Q289.6563,130.7314 290.25,130.4658 Q290.8438,130.1845 291.4688,129.6064 L291.4688,132.3252 Z " fill="#000000"/><text fill="#D9B8FF" font-family="Helvetica" font-size="17" lengthAdjust="spacing" textLength="192" x="307.5" y="132.5698">aws_cognito_user_pool</text></g><!--class aws_kms_key--><g id="elem_aws_kms_key"><rect codeLine="28" fill="#3D176E" height="39.7891" id="aws_kms_key" rx="2.5" ry="2.5" style="stroke:#000D19;stroke-width:0.5;" width="158" x="524.5" y="306.37"/><ellipse cx="539.5" cy="326.2645" fill="#ADD1B2" rx="11" ry="11" style="stroke:#181818;stroke-width:1.0;"/><path d="M542.4688,331.9052 Q541.8906,332.202 541.25,332.3427 Q540.6094,332.4989 539.9063,332.4989 Q537.4063,332.4989 536.0781,330.8583 Q534.7656,329.202 534.7656,326.077 Q534.7656,322.952 536.0781,321.2958 Q537.4063,319.6395 539.9063,319.6395 Q540.6094,319.6395 541.25,319.7958 Q541.9063,319.952 542.4688,320.2489 L542.4688,322.9677 Q541.8438,322.3895 541.25,322.1239 Q540.6563,321.8427 540.0313,321.8427 Q538.6875,321.8427 538,322.9208 Q537.3125,323.9833 537.3125,326.077 Q537.3125,328.1708 538,329.2489 Q538.6875,330.3114 540.0313,330.3114 Q540.6563,330.3114 541.25,330.0458 Q541.8438,329.7645 542.4688,329.1864 L542.4688,331.9052 Z " fill="#000000"/><text fill="#D9B8FF" font-family="Helvetica" font-size="17" lengthAdjust="spacing" textLength="116" x="558.5" y="332.1498">aws_kms_key</text></g><!--class aws_lambda_function--><g id="elem_aws_lambda_function"><rect codeLine="30" fill="#3D176E" height="39.7891" id="aws_lambda_function" rx="2.5" ry="2.5" style="stroke:#000D19;stroke-width:0.5;" width="224" x="574.5" y="206.58"/><ellipse cx="589.5" cy="226.4745" fill="#ADD1B2" rx="11" ry="11" style="stroke:#181818;stroke-width:1.0;"/><path d="M592.4688,232.1152 Q591.8906,232.412 591.25,232.5527 Q590.6094,232.7089 589.9063,232.7089 Q587.4063,232.7089 586.0781,231.0683 Q584.7656,229.412 584.7656,226.287 Q584.7656,223.162 586.0781,221.5058 Q587.4063,219.8495 589.9063,219.8495 Q590.6094,219.8495 591.25,220.0058 Q591.9063,220.162 592.4688,220.4589 L592.4688,223.1777 Q591.8438,222.5995 591.25,222.3339 Q590.6563,222.0527 590.0313,222.0527 Q588.6875,222.0527 588,223.1308 Q587.3125,224.1933 587.3125,226.287 Q587.3125,228.3808 588,229.4589 Q588.6875,230.5214 590.0313,230.5214 Q590.6563,230.5214 591.25,230.2558 Q591.8438,229.9745 592.4688,229.3964 L592.4688,232.1152 Z " fill="#000000"/><text fill="#D9B8FF" font-family="Helvetica" font-size="17" lengthAdjust="spacing" textLength="182" x="608.5" y="232.3598">aws_lambda_function</text></g><!--class aws_sagemaker_workteam--><g id="elem_aws_sagemaker_workteam"><rect codeLine="32" fill="#3D176E" height="39.7891" id="aws_sagemaker_workteam" rx="2.5" ry="2.5" style="stroke:#000D19;stroke-width:0.5;" width="271" x="7" y="7"/><ellipse cx="22" cy="26.8945" fill="#ADD1B2" rx="11" ry="11" style="stroke:#181818;stroke-width:1.0;"/><path d="M24.9688,32.5352 Q24.3906,32.832 23.75,32.9727 Q23.1094,33.1289 22.4063,33.1289 Q19.9063,33.1289 18.5781,31.4883 Q17.2656,29.832 17.2656,26.707 Q17.2656,23.582 18.5781,21.9258 Q19.9063,20.2695 22.4063,20.2695 Q23.1094,20.2695 23.75,20.4258 Q24.4063,20.582 24.9688,20.8789 L24.9688,23.5977 Q24.3438,23.0195 23.75,22.7539 Q23.1563,22.4727 22.5313,22.4727 Q21.1875,22.4727 20.5,23.5508 Q19.8125,24.6133 19.8125,26.707 Q19.8125,28.8008 20.5,29.8789 Q21.1875,30.9414 22.5313,30.9414 Q23.1563,30.9414 23.75,30.6758 Q24.3438,30.3945 24.9688,29.8164 L24.9688,32.5352 Z " fill="#000000"/><text fill="#D9B8FF" font-family="Helvetica" font-size="17" lengthAdjust="spacing" textLength="229" x="41" y="32.7798">aws_sagemaker_workteam</text></g><!--class aws_waf_web_acl--><g id="elem_aws_waf_web_acl"><rect codeLine="34" fill="#3D176E" height="39.7891" id="aws_waf_web_acl" rx="2.5" ry="2.5" style="stroke:#000D19;stroke-width:0.5;" width="191" x="313" y="7"/><ellipse cx="328" cy="26.8945" fill="#ADD1B2" rx="11" ry="11" style="stroke:#181818;stroke-width:1.0;"/><path d="M330.9688,32.5352 Q330.3906,32.832 329.75,32.9727 Q329.1094,33.1289 328.4063,33.1289 Q325.9063,33.1289 324.5781,31.4883 Q323.2656,29.832 323.2656,26.707 Q323.2656,23.582 324.5781,21.9258 Q325.9063,20.2695 328.4063,20.2695 Q329.1094,20.2695 329.75,20.4258 Q330.4063,20.582 330.9688,20.8789 L330.9688,23.5977 Q330.3438,23.0195 329.75,22.7539 Q329.1563,22.4727 328.5313,22.4727 Q327.1875,22.4727 326.5,23.5508 Q325.8125,24.6133 325.8125,26.707 Q325.8125,28.8008 326.5,29.8789 Q327.1875,30.9414 328.5313,30.9414 Q329.1563,30.9414 329.75,30.6758 Q330.3438,30.3945 330.9688,29.8164 L330.9688,32.5352 Z " fill="#000000"/><text fill="#D9B8FF" font-family="Helvetica" font-size="17" lengthAdjust="spacing" textLength="149" x="347" y="32.7798">aws_waf_web_acl</text></g><!--link aws_cognito_user_pool to aws_cognito_group--><g id="link_aws_cognito_user_pool_aws_cognito_group"><path codeLine="36" d="M341.5,147.01 C298.03,164.15 240.4213,186.8578 196.9813,203.9978 " fill="none" id="aws_cognito_user_pool-to-aws_cognito_group" style="stroke:#1A83AF;stroke-width:2.0;"/><polygon fill="#1A83AF" points="191.4,206.2,201.24,206.6176,196.051,204.3648,198.3038,199.1759,191.4,206.2" style="stroke:#1A83AF;stroke-width:2.0;"/></g><!--link aws_cognito_user_pool to aws_cognito_user--><g id="link_aws_cognito_user_pool_aws_cognito_user"><path codeLine="37" d="M387.14,147.01 C384.16,164.15 380.8578,183.1487 377.8778,200.2887 " fill="none" id="aws_cognito_user_pool-to-aws_cognito_user" style="stroke:#1A83AF;stroke-width:2.0;"/><polygon fill="#1A83AF" points="376.85,206.2,382.3325,198.0182,377.7065,201.2739,374.4508,196.6478,376.85,206.2" style="stroke:#1A83AF;stroke-width:2.0;"/></g><!--link aws_cognito_user_pool to aws_kms_key--><g id="link_aws_cognito_user_pool_aws_kms_key"><path codeLine="38" d="M415.16,146.78 C434.91,162.35 463.09,185.19 486.5,206.58 C523.24,240.15 559.3333,277.7963 581.7433,301.7763 " fill="none" id="aws_cognito_user_pool-to-aws_kms_key" style="stroke:#1A83AF;stroke-width:2.0;"/><polygon fill="#1A83AF" points="585.84,306.16,582.6174,296.8533,582.4261,302.5069,576.7725,302.3156,585.84,306.16" style="stroke:#1A83AF;stroke-width:2.0;"/></g><!--link aws_cognito_user_pool to aws_lambda_function--><g id="link_aws_cognito_user_pool_aws_lambda_function"><path codeLine="39" d="M448.98,147.01 C500.79,164.12 570.3429,187.0978 622.1929,204.2278 " fill="none" id="aws_cognito_user_pool-to-aws_lambda_function" style="stroke:#1A83AF;stroke-width:2.0;"/><polygon fill="#1A83AF" points="627.89,206.11,620.5991,199.4886,623.1424,204.5415,618.0895,207.0848,627.89,206.11" style="stroke:#1A83AF;stroke-width:2.0;"/></g><!--link aws_lambda_function to aws_kms_key--><g id="link_aws_lambda_function_aws_kms_key"><path codeLine="40" d="M670.1,246.8 C655.55,263.94 638.2814,284.2745 623.7414,301.4145 " fill="none" id="aws_lambda_function-to-aws_kms_key" style="stroke:#1A83AF;stroke-width:2.0;"/><polygon fill="#1A83AF" points="619.86,305.99,628.7324,301.7144,623.0945,302.1771,622.6318,296.5392,619.86,305.99" style="stroke:#1A83AF;stroke-width:2.0;"/></g><!--link aws_sagemaker_workteam to aws_cognito_group--><g id="link_aws_sagemaker_workteam_aws_cognito_group"><path codeLine="41" d="M142.5,47.2 C142.5,84.97 142.5,162.26 142.5,200.09 " fill="none" id="aws_sagemaker_workteam-to-aws_cognito_group" style="stroke:#1A83AF;stroke-width:2.0;"/><polygon fill="#1A83AF" points="142.5,206.09,146.5,197.09,142.5,201.09,138.5,197.09,142.5,206.09" style="stroke:#1A83AF;stroke-width:2.0;"/></g><!--link aws_sagemaker_workteam to aws_cognito_user_pool--><g id="link_aws_sagemaker_workteam_aws_cognito_user_pool"><path codeLine="42" d="M191.5,47.22 C234.97,64.36 292.5783,87.0789 336.0183,104.2089 " fill="none" id="aws_sagemaker_workteam-to-aws_cognito_user_pool" style="stroke:#1A83AF;stroke-width:2.0;"/><polygon fill="#1A83AF" points="341.6,106.41,334.6948,99.3873,336.9486,104.5758,331.7601,106.8295,341.6,106.41" style="stroke:#1A83AF;stroke-width:2.0;"/></g><!--link aws_waf_web_acl to aws_cognito_user_pool--><g id="link_aws_waf_web_acl_aws_cognito_user_pool"><path codeLine="43" d="M404.94,47.22 C401.79,64.36 398.2851,83.3789 395.1351,100.5089 " fill="none" id="aws_waf_web_acl-to-aws_cognito_user_pool" style="stroke:#1A83AF;stroke-width:2.0;"/><polygon fill="#1A83AF" points="394.05,106.41,399.6117,98.2818,394.9543,101.4925,391.7437,96.835,394.05,106.41" style="stroke:#1A83AF;stroke-width:2.0;"/></g><!--SRC=[bP3DJiCm48JlUGfBFLTggA3j1QbKgk1I8SeDeMWJhrChiJUo7QA2U7SIMghWf7y7NtQ-zSxCHd9ag0gtPGfLZCO6DfEw00EApOsXQa4v6JOG0iHuuejBqkuii0A5x17p3tGo0PzutSWaqsWjksb93v1agQ5Iyzttpe2sjOJQjQX53jREdJCoBXsspF1PF1N29_rF1sCUJkwmWv7XQFR8Q3JYuSn7pfuwcVj0hEKdih1TseeSTcnsJlnI9rqsHCja9-YVVjJZCt0kTSfkMxENdIUZqVoRhpV0gMfe0Rbjdx4E3PBR5hZefCBPb8j9B_nq34wQvXXKDaeerT9Hr505-mg-UxJIraQFIr51b7jwfkg7Ms-QWuevHABKYPEaFTL2YWgo-iEAJEQmZl8Vg4145SOH9Bjp_KQ6RuDmFXtFb-_3-sx4QvSQvDATVUXBSQ-DeA-XapTw2hiW_3LR1_U1t__vbHy0]--></g></svg>

<svg xmlns="http://www.w3.org/2000/svg" width="805" height="352" viewBox="0 0 805 352"><rect width="202" height="39.789" x="41.5" y="206.58" fill="#3D176E" rx="2.5" ry="2.5" style="stroke:#000d19;stroke-width:.5"/><circle cx="56.5" cy="226.475" r="11" fill="#ADD1B2" style="stroke:#181818;stroke-width:1"/><path d="M59.469 232.115q-.578.297-1.219.438-.64.156-1.344.156-2.5 0-3.828-1.64-1.312-1.657-1.312-4.782t1.312-4.781q1.328-1.656 3.828-1.656.703 0 1.344.156.656.156 1.219.453v2.719q-.625-.578-1.219-.844-.594-.281-1.219-.281-1.343 0-2.031 1.078-.687 1.062-.687 3.156t.687 3.172q.688 1.062 2.031 1.062.625 0 1.219-.265.594-.281 1.219-.86z"/><text x="75.5" y="232.36" fill="#D9B8FF" font-family="Helvetica" font-size="17" textLength="160">aws_cognito_group</text><rect width="190" height="39.789" x="278.5" y="206.58" fill="#3D176E" rx="2.5" ry="2.5" style="stroke:#000d19;stroke-width:.5"/><circle cx="293.5" cy="226.475" r="11" fill="#ADD1B2" style="stroke:#181818;stroke-width:1"/><path d="M296.469 232.115q-.578.297-1.219.438-.64.156-1.344.156-2.5 0-3.828-1.64-1.312-1.657-1.312-4.782t1.312-4.781q1.328-1.656 3.828-1.656.703 0 1.344.156.656.156 1.219.453v2.719q-.625-.578-1.219-.844-.594-.281-1.219-.281-1.344 0-2.031 1.078-.687 1.062-.687 3.156t.687 3.172q.688 1.062 2.031 1.062.625 0 1.219-.265.594-.281 1.219-.86z"/><text x="312.5" y="232.36" fill="#D9B8FF" font-family="Helvetica" font-size="17" textLength="148">aws_cognito_user</text><rect width="234" height="39.789" x="273.5" y="106.79" fill="#3D176E" rx="2.5" ry="2.5" style="stroke:#000d19;stroke-width:.5"/><circle cx="288.5" cy="126.684" r="11" fill="#ADD1B2" style="stroke:#181818;stroke-width:1"/><path d="M291.469 132.325q-.578.297-1.219.438-.64.156-1.344.156-2.5 0-3.828-1.64-1.312-1.657-1.312-4.782t1.312-4.781q1.328-1.656 3.828-1.656.703 0 1.344.156.656.156 1.219.453v2.719q-.625-.579-1.219-.844-.594-.281-1.219-.281-1.344 0-2.031 1.078-.687 1.062-.687 3.156t.687 3.172q.688 1.062 2.031 1.062.625 0 1.219-.265.594-.281 1.219-.86z"/><text x="307.5" y="132.57" fill="#D9B8FF" font-family="Helvetica" font-size="17" textLength="192">aws_cognito_user_pool</text><rect width="158" height="39.789" x="524.5" y="306.37" fill="#3D176E" rx="2.5" ry="2.5" style="stroke:#000d19;stroke-width:.5"/><circle cx="539.5" cy="326.264" r="11" fill="#ADD1B2" style="stroke:#181818;stroke-width:1"/><path d="M542.469 331.905q-.578.297-1.219.438-.64.156-1.344.156-2.5 0-3.828-1.64-1.312-1.657-1.312-4.782t1.312-4.781q1.328-1.656 3.828-1.656.703 0 1.344.156.656.156 1.219.453v2.719q-.625-.579-1.219-.844-.594-.281-1.219-.281-1.343 0-2.031 1.078-.687 1.062-.687 3.156t.687 3.172q.688 1.062 2.031 1.062.625 0 1.219-.265.594-.281 1.219-.86z"/><text x="558.5" y="332.15" fill="#D9B8FF" font-family="Helvetica" font-size="17" textLength="116">aws_kms_key</text><rect width="224" height="39.789" x="574.5" y="206.58" fill="#3D176E" rx="2.5" ry="2.5" style="stroke:#000d19;stroke-width:.5"/><circle cx="589.5" cy="226.475" r="11" fill="#ADD1B2" style="stroke:#181818;stroke-width:1"/><path d="M592.469 232.115q-.578.297-1.219.438-.64.156-1.344.156-2.5 0-3.828-1.64-1.312-1.657-1.312-4.782t1.312-4.781q1.328-1.656 3.828-1.656.703 0 1.344.156.656.156 1.219.453v2.719q-.625-.578-1.219-.844-.594-.281-1.219-.281-1.343 0-2.031 1.078-.687 1.062-.687 3.156t.687 3.172q.688 1.062 2.031 1.062.625 0 1.219-.265.594-.281 1.219-.86z"/><text x="608.5" y="232.36" fill="#D9B8FF" font-family="Helvetica" font-size="17" textLength="182">aws_lambda_function</text><rect width="271" height="39.789" x="7" y="7" fill="#3D176E" rx="2.5" ry="2.5" style="stroke:#000d19;stroke-width:.5"/><circle cx="22" cy="26.895" r="11" fill="#ADD1B2" style="stroke:#181818;stroke-width:1"/><path d="M24.969 32.535q-.578.297-1.219.438-.64.156-1.344.156-2.5 0-3.828-1.64-1.312-1.657-1.312-4.782t1.312-4.781q1.328-1.656 3.828-1.656.703 0 1.344.156.656.156 1.219.453v2.719q-.625-.578-1.219-.844-.594-.281-1.219-.281-1.343 0-2.031 1.078-.687 1.062-.687 3.156t.687 3.172q.688 1.062 2.031 1.062.625 0 1.219-.265.594-.281 1.219-.86z"/><text x="41" y="32.78" fill="#D9B8FF" font-family="Helvetica" font-size="17" textLength="229">aws_sagemaker_workteam</text><rect width="191" height="39.789" x="313" y="7" fill="#3D176E" rx="2.5" ry="2.5" style="stroke:#000d19;stroke-width:.5"/><circle cx="328" cy="26.895" r="11" fill="#ADD1B2" style="stroke:#181818;stroke-width:1"/><path d="M330.969 32.535q-.578.297-1.219.438-.64.156-1.344.156-2.5 0-3.828-1.64-1.312-1.657-1.312-4.782t1.312-4.781q1.328-1.656 3.828-1.656.703 0 1.344.156.656.156 1.219.453v2.719q-.625-.578-1.219-.844-.594-.281-1.219-.281-1.344 0-2.031 1.078-.687 1.062-.687 3.156t.687 3.172q.688 1.062 2.031 1.062.625 0 1.219-.265.594-.281 1.219-.86z"/><text x="347" y="32.78" fill="#D9B8FF" font-family="Helvetica" font-size="17" textLength="149">aws_waf_web_acl</text><path fill="none" d="M341.5 147.01c-43.47 17.14-101.079 39.848-144.519 56.988" style="stroke:#1a83af;stroke-width:2"/><path fill="#1A83AF" d="m191.4 206.2 9.84.418-5.189-2.253 2.253-5.19z" style="stroke:#1a83af;stroke-width:2"/><path fill="none" d="m387.14 147.01-9.262 53.279" style="stroke:#1a83af;stroke-width:2"/><path fill="#1A83AF" d="m376.85 206.2 5.482-8.182-4.625 3.256-3.256-4.626z" style="stroke:#1a83af;stroke-width:2"/><path fill="none" d="M415.16 146.78c19.75 15.57 47.93 38.41 71.34 59.8 36.74 33.57 72.833 71.216 95.243 95.196" style="stroke:#1a83af;stroke-width:2"/><path fill="#1A83AF" d="m585.84 306.16-3.223-9.307-.19 5.654-5.654-.191z" style="stroke:#1a83af;stroke-width:2"/><path fill="none" d="M448.98 147.01c51.81 17.11 121.363 40.088 173.213 57.218" style="stroke:#1a83af;stroke-width:2"/><path fill="#1A83AF" d="m627.89 206.11-7.29-6.621 2.542 5.053-5.053 2.543z" style="stroke:#1a83af;stroke-width:2"/><path fill="none" d="M670.1 246.8c-14.55 17.14-31.819 37.474-46.359 54.614" style="stroke:#1a83af;stroke-width:2"/><path fill="#1A83AF" d="m619.86 305.99 8.872-4.276-5.637.463-.463-5.638z" style="stroke:#1a83af;stroke-width:2"/><path fill="none" d="M142.5 47.2v152.89" style="stroke:#1a83af;stroke-width:2"/><path fill="#1A83AF" d="m142.5 206.09 4-9-4 4-4-4z" style="stroke:#1a83af;stroke-width:2"/><path fill="none" d="M191.5 47.22c43.47 17.14 101.078 39.859 144.518 56.989" style="stroke:#1a83af;stroke-width:2"/><path fill="#1A83AF" d="m341.6 106.41-6.905-7.023 2.254 5.189-5.189 2.254z" style="stroke:#1a83af;stroke-width:2"/><path fill="none" d="M404.94 47.22c-3.15 17.14-6.655 36.159-9.805 53.289" style="stroke:#1a83af;stroke-width:2"/><path fill="#1A83AF" d="m394.05 106.41 5.562-8.128-4.658 3.21-3.21-4.657z" style="stroke:#1a83af;stroke-width:2"/></svg>
